report_00007_2020-12-11T15:55:29.892Z/uses-text-compression/comparison/sorted/0_vs_1.svg

<svg width="640" height="500" xmlns="http://www.w3.org/2000/svg" xmlns:xlink="http://www.w3.org/1999/xlink"><path fill="#fff" d="M0 0h640v500H0z"/><defs><path id="d" stroke-width=".222" stroke="currentColor" d="M-1-1h2v2h-2z"/><path id="b" stroke-width=".222" stroke="currentColor" d="M0-1.33l-1.33 2h2.66z"/><path id="f" stroke-width=".222" stroke="currentColor" d="M0 1.33L1.265.411.782-1.067l-1.564-.009-.483 1.487z"/><use xlink:href="#b" id="c" stroke="currentColor" transform="rotate(180)"/><use xlink:href="#d" id="e" stroke="currentColor" transform="rotate(45)"/><circle id="a" stroke-width=".222" stroke="currentColor" cx="0" cy="0" r="1"/></defs><g fill="none" color="#000" stroke="currentColor"><path stroke="#000" d="M62.2 437.8h9m543.8 0h-9"/><text transform="translate(53.9 441.7)" stroke="none" fill="#000" font-family="Arial" font-size="12" text-anchor="end"><tspan>0</tspan></text></g><g fill="none" color="#000" stroke="currentColor"><path stroke="#000" d="M62.2 369.5h9m543.8 0h-9"/><text transform="translate(53.9 373.4)" stroke="none" fill="#000" font-family="Arial" font-size="12" text-anchor="end"><tspan>1000</tspan></text></g><g fill="none" color="#000" stroke="currentColor"><path stroke="#000" d="M62.2 301.3h9m543.8 0h-9"/><text transform="translate(53.9 305.2)" stroke="none" fill="#000" font-family="Arial" font-size="12" text-anchor="end"><tspan>2000</tspan></text></g><g fill="none" color="#000" stroke="currentColor"><path stroke="#000" d="M62.2 233.1h9m543.8 0h-9"/><text transform="translate(53.9 237)" stroke="none" fill="#000" font-family="Arial" font-size="12" text-anchor="end"><tspan>3000</tspan></text></g><g fill="none" color="#000" stroke="currentColor"><path stroke="#000" d="M62.2 164.8h9m543.8 0h-9"/><text transform="translate(53.9 168.7)" stroke="none" fill="#000" font-family="Arial" font-size="12" text-anchor="end"><tspan>4000</tspan></text></g><g fill="none" color="#000" stroke="currentColor"><path stroke="#000" d="M62.2 96.6h9m543.8 0h-9"/><text transform="translate(53.9 100.5)" stroke="none" fill="#000" font-family="Arial" font-size="12" text-anchor="end"><tspan>5000</tspan></text></g><g fill="none" color="#000" stroke="currentColor"><path stroke="#000" d="M62.2 28.4h9m543.8 0h-9"/><text transform="translate(53.9 32.3)" stroke="none" fill="#000" font-family="Arial" font-size="12" text-anchor="end"><tspan>6000</tspan></text></g><g fill="none" color="#000" stroke="currentColor"><path stroke="#000" d="M62.2 446v-9m0-418.9v9"/><text transform="translate(62.2 467.9)" stroke="none" fill="#000" font-family="Arial" font-size="12" text-anchor="middle"><tspan>0</tspan></text></g><g fill="none" color="#000" stroke="currentColor"><path stroke="#000" d="M118 446v-9m0-418.9v9"/><text transform="translate(118 467.9)" stroke="none" fill="#000" font-family="Arial" font-size="12" text-anchor="middle"><tspan>10</tspan></text></g><g fill="none" color="#000" stroke="currentColor"><path stroke="#000" d="M173.9 446v-9m0-418.9v9"/><text transform="translate(173.9 467.9)" stroke="none" fill="#000" font-family="Arial" font-size="12" text-anchor="middle"><tspan>20</tspan></text></g><g fill="none" color="#000" stroke="currentColor"><path stroke="#000" d="M229.7 446v-9m0-418.9v9"/><text transform="translate(229.7 467.9)" stroke="none" fill="#000" font-family="Arial" font-size="12" text-anchor="middle"><tspan>30</tspan></text></g><g fill="none" color="#000" stroke="currentColor"><path stroke="#000" d="M285.6 446v-9m0-418.9v9"/><text transform="translate(285.6 467.9)" stroke="none" fill="#000" font-family="Arial" font-size="12" text-anchor="middle"><tspan>40</tspan></text></g><g fill="none" color="#000" stroke="currentColor"><path stroke="#000" d="M341.4 446v-9m0-418.9v9"/><text transform="translate(341.4 467.9)" stroke="none" fill="#000" font-family="Arial" font-size="12" text-anchor="middle"><tspan>50</tspan></text></g><g fill="none" color="#000" stroke="currentColor"><path stroke="#000" d="M397.2 446v-9m0-418.9v9"/><text transform="translate(397.2 467.9)" stroke="none" fill="#000" font-family="Arial" font-size="12" text-anchor="middle"><tspan>60</tspan></text></g><g fill="none" color="#000" stroke="currentColor"><path stroke="#000" d="M453.1 446v-9m0-418.9v9"/><text transform="translate(453.1 467.9)" stroke="none" fill="#000" font-family="Arial" font-size="12" text-anchor="middle"><tspan>70</tspan></text></g><g fill="none" color="#000" stroke="currentColor"><path stroke="#000" d="M508.9 446v-9m0-418.9v9"/><text transform="translate(508.9 467.9)" stroke="none" fill="#000" font-family="Arial" font-size="12" text-anchor="middle"><tspan>80</tspan></text></g><g fill="none" color="#000" stroke="currentColor"><path stroke="#000" d="M564.7 446v-9m0-418.9v9"/><text transform="translate(564.7 467.9)" stroke="none" fill="#000" font-family="Arial" font-size="12" text-anchor="middle"><tspan>90</tspan></text></g><path stroke="#000" d="M62.2 18.1V446H615V18.1H62.2z" fill="none" color="#000"/><text transform="translate(279.8 485.9)" stroke="none" fill="#000" font-family="Arial" font-size="12" text-anchor="end" color="#000"><tspan>empty</tspan></text><path stroke="#9400D3" d="M288.1 482h42.2M62.2 437.8H615" fill="none" color="#000"/><text transform="translate(380.1 485.9)" stroke="none" fill="#000" font-family="Arial" font-size="12" text-anchor="end" color="#000"><tspan>pages</tspan></text><path stroke="#009E73" d="M388.4 482h42.2M62.2 222.8l5.6-82.5 5.6-81.2H79l5.5-10.3H324.6l5.6-5.4 5.6-4.8H575.9l5.6-1.4 5.6-4.7 5.6-.7 5.5-2.1 5.6-1.3h5.6l5.6-2.1" fill="none" color="#000"/><g fill="none" color="#000" stroke="currentColor"><path stroke="#000" d="M62.2 18.1V446H615V18.1H62.2z"/></g></svg>

<?xml version="1.0" encoding="utf-8"  standalone="no"?>
<svg 
 width="640" height="500"
 viewBox="0 0 640 500"
 xmlns="http://www.w3.org/2000/svg"
 xmlns:xlink="http://www.w3.org/1999/xlink"
>

<title>Gnuplot</title>
<desc>Produced by GNUPLOT 5.4 patchlevel 0 </desc>

<g id="gnuplot_canvas">

<rect x="0" y="0" width="640" height="500" fill="#ffffff"/>
<defs>

	<circle id='gpDot' r='0.5' stroke-width='0.5' stroke='currentColor'/>
	<path id='gpPt0' stroke-width='0.222' stroke='currentColor' d='M-1,0 h2 M0,-1 v2'/>
	<path id='gpPt1' stroke-width='0.222' stroke='currentColor' d='M-1,-1 L1,1 M1,-1 L-1,1'/>
	<path id='gpPt2' stroke-width='0.222' stroke='currentColor' d='M-1,0 L1,0 M0,-1 L0,1 M-1,-1 L1,1 M-1,1 L1,-1'/>
	<rect id='gpPt3' stroke-width='0.222' stroke='currentColor' x='-1' y='-1' width='2' height='2'/>
	<rect id='gpPt4' stroke-width='0.222' stroke='currentColor' fill='currentColor' x='-1' y='-1' width='2' height='2'/>
	<circle id='gpPt5' stroke-width='0.222' stroke='currentColor' cx='0' cy='0' r='1'/>
	<use xlink:href='#gpPt5' id='gpPt6' fill='currentColor' stroke='none'/>
	<path id='gpPt7' stroke-width='0.222' stroke='currentColor' d='M0,-1.33 L-1.33,0.67 L1.33,0.67 z'/>
	<use xlink:href='#gpPt7' id='gpPt8' fill='currentColor' stroke='none'/>
	<use xlink:href='#gpPt7' id='gpPt9' stroke='currentColor' transform='rotate(180)'/>
	<use xlink:href='#gpPt9' id='gpPt10' fill='currentColor' stroke='none'/>
	<use xlink:href='#gpPt3' id='gpPt11' stroke='currentColor' transform='rotate(45)'/>
	<use xlink:href='#gpPt11' id='gpPt12' fill='currentColor' stroke='none'/>
	<path id='gpPt13' stroke-width='0.222' stroke='currentColor' d='M0,1.330 L1.265,0.411 L0.782,-1.067 L-0.782,-1.076 L-1.265,0.411 z'/>
	<use xlink:href='#gpPt13' id='gpPt14' fill='currentColor' stroke='none'/>
	<filter id='textbox' filterUnits='objectBoundingBox' x='0' y='0' height='1' width='1'>
	  <feFlood flood-color='#FFFFFF' flood-opacity='1' result='bgnd'/>
	  <feComposite in='SourceGraphic' in2='bgnd' operator='atop'/>
	</filter>
	<filter id='greybox' filterUnits='objectBoundingBox' x='0' y='0' height='1' width='1'>
	  <feFlood flood-color='lightgrey' flood-opacity='1' result='grey'/>
	  <feComposite in='SourceGraphic' in2='grey' operator='atop'/>
	</filter>
</defs>
<g fill="none" color="#FFFFFF" stroke="black" stroke-width="1.00" stroke-linecap="butt" stroke-linejoin="miter">
</g>
<g fill="none" color="black" stroke="currentColor" stroke-width="1.00" stroke-linecap="butt" stroke-linejoin="miter">
	<path stroke='black'  d='M62.2,437.8 L71.2,437.8 M615.0,437.8 L606.0,437.8  '/>	<g transform="translate(53.9,441.7)" stroke="none" fill="black" font-family="Arial" font-size="12.00"  text-anchor="end">
		<text><tspan font-family="Arial" > 0</tspan></text>
	</g>
</g>
<g fill="none" color="black" stroke="currentColor" stroke-width="1.00" stroke-linecap="butt" stroke-linejoin="miter">
	<path stroke='black'  d='M62.2,369.5 L71.2,369.5 M615.0,369.5 L606.0,369.5  '/>	<g transform="translate(53.9,373.4)" stroke="none" fill="black" font-family="Arial" font-size="12.00"  text-anchor="end">
		<text><tspan font-family="Arial" > 1000</tspan></text>
	</g>
</g>
<g fill="none" color="black" stroke="currentColor" stroke-width="1.00" stroke-linecap="butt" stroke-linejoin="miter">
	<path stroke='black'  d='M62.2,301.3 L71.2,301.3 M615.0,301.3 L606.0,301.3  '/>	<g transform="translate(53.9,305.2)" stroke="none" fill="black" font-family="Arial" font-size="12.00"  text-anchor="end">
		<text><tspan font-family="Arial" > 2000</tspan></text>
	</g>
</g>
<g fill="none" color="black" stroke="currentColor" stroke-width="1.00" stroke-linecap="butt" stroke-linejoin="miter">
	<path stroke='black'  d='M62.2,233.1 L71.2,233.1 M615.0,233.1 L606.0,233.1  '/>	<g transform="translate(53.9,237.0)" stroke="none" fill="black" font-family="Arial" font-size="12.00"  text-anchor="end">
		<text><tspan font-family="Arial" > 3000</tspan></text>
	</g>
</g>
<g fill="none" color="black" stroke="currentColor" stroke-width="1.00" stroke-linecap="butt" stroke-linejoin="miter">
	<path stroke='black'  d='M62.2,164.8 L71.2,164.8 M615.0,164.8 L606.0,164.8  '/>	<g transform="translate(53.9,168.7)" stroke="none" fill="black" font-family="Arial" font-size="12.00"  text-anchor="end">
		<text><tspan font-family="Arial" > 4000</tspan></text>
	</g>
</g>
<g fill="none" color="black" stroke="currentColor" stroke-width="1.00" stroke-linecap="butt" stroke-linejoin="miter">
	<path stroke='black'  d='M62.2,96.6 L71.2,96.6 M615.0,96.6 L606.0,96.6  '/>	<g transform="translate(53.9,100.5)" stroke="none" fill="black" font-family="Arial" font-size="12.00"  text-anchor="end">
		<text><tspan font-family="Arial" > 5000</tspan></text>
	</g>
</g>
<g fill="none" color="black" stroke="currentColor" stroke-width="1.00" stroke-linecap="butt" stroke-linejoin="miter">
	<path stroke='black'  d='M62.2,28.4 L71.2,28.4 M615.0,28.4 L606.0,28.4  '/>	<g transform="translate(53.9,32.3)" stroke="none" fill="black" font-family="Arial" font-size="12.00"  text-anchor="end">
		<text><tspan font-family="Arial" > 6000</tspan></text>
	</g>
</g>
<g fill="none" color="black" stroke="currentColor" stroke-width="1.00" stroke-linecap="butt" stroke-linejoin="miter">
	<path stroke='black'  d='M62.2,446.0 L62.2,437.0 M62.2,18.1 L62.2,27.1  '/>	<g transform="translate(62.2,467.9)" stroke="none" fill="black" font-family="Arial" font-size="12.00"  text-anchor="middle">
		<text><tspan font-family="Arial" > 0</tspan></text>
	</g>
</g>
<g fill="none" color="black" stroke="currentColor" stroke-width="1.00" stroke-linecap="butt" stroke-linejoin="miter">
	<path stroke='black'  d='M118.0,446.0 L118.0,437.0 M118.0,18.1 L118.0,27.1  '/>	<g transform="translate(118.0,467.9)" stroke="none" fill="black" font-family="Arial" font-size="12.00"  text-anchor="middle">
		<text><tspan font-family="Arial" > 10</tspan></text>
	</g>
</g>
<g fill="none" color="black" stroke="currentColor" stroke-width="1.00" stroke-linecap="butt" stroke-linejoin="miter">
	<path stroke='black'  d='M173.9,446.0 L173.9,437.0 M173.9,18.1 L173.9,27.1  '/>	<g transform="translate(173.9,467.9)" stroke="none" fill="black" font-family="Arial" font-size="12.00"  text-anchor="middle">
		<text><tspan font-family="Arial" > 20</tspan></text>
	</g>
</g>
<g fill="none" color="black" stroke="currentColor" stroke-width="1.00" stroke-linecap="butt" stroke-linejoin="miter">
	<path stroke='black'  d='M229.7,446.0 L229.7,437.0 M229.7,18.1 L229.7,27.1  '/>	<g transform="translate(229.7,467.9)" stroke="none" fill="black" font-family="Arial" font-size="12.00"  text-anchor="middle">
		<text><tspan font-family="Arial" > 30</tspan></text>
	</g>
</g>
<g fill="none" color="black" stroke="currentColor" stroke-width="1.00" stroke-linecap="butt" stroke-linejoin="miter">
	<path stroke='black'  d='M285.6,446.0 L285.6,437.0 M285.6,18.1 L285.6,27.1  '/>	<g transform="translate(285.6,467.9)" stroke="none" fill="black" font-family="Arial" font-size="12.00"  text-anchor="middle">
		<text><tspan font-family="Arial" > 40</tspan></text>
	</g>
</g>
<g fill="none" color="black" stroke="currentColor" stroke-width="1.00" stroke-linecap="butt" stroke-linejoin="miter">
	<path stroke='black'  d='M341.4,446.0 L341.4,437.0 M341.4,18.1 L341.4,27.1  '/>	<g transform="translate(341.4,467.9)" stroke="none" fill="black" font-family="Arial" font-size="12.00"  text-anchor="middle">
		<text><tspan font-family="Arial" > 50</tspan></text>
	</g>
</g>
<g fill="none" color="black" stroke="currentColor" stroke-width="1.00" stroke-linecap="butt" stroke-linejoin="miter">
	<path stroke='black'  d='M397.2,446.0 L397.2,437.0 M397.2,18.1 L397.2,27.1  '/>	<g transform="translate(397.2,467.9)" stroke="none" fill="black" font-family="Arial" font-size="12.00"  text-anchor="middle">
		<text><tspan font-family="Arial" > 60</tspan></text>
	</g>
</g>
<g fill="none" color="black" stroke="currentColor" stroke-width="1.00" stroke-linecap="butt" stroke-linejoin="miter">
	<path stroke='black'  d='M453.1,446.0 L453.1,437.0 M453.1,18.1 L453.1,27.1  '/>	<g transform="translate(453.1,467.9)" stroke="none" fill="black" font-family="Arial" font-size="12.00"  text-anchor="middle">
		<text><tspan font-family="Arial" > 70</tspan></text>
	</g>
</g>
<g fill="none" color="black" stroke="currentColor" stroke-width="1.00" stroke-linecap="butt" stroke-linejoin="miter">
	<path stroke='black'  d='M508.9,446.0 L508.9,437.0 M508.9,18.1 L508.9,27.1  '/>	<g transform="translate(508.9,467.9)" stroke="none" fill="black" font-family="Arial" font-size="12.00"  text-anchor="middle">
		<text><tspan font-family="Arial" > 80</tspan></text>
	</g>
</g>
<g fill="none" color="black" stroke="currentColor" stroke-width="1.00" stroke-linecap="butt" stroke-linejoin="miter">
	<path stroke='black'  d='M564.7,446.0 L564.7,437.0 M564.7,18.1 L564.7,27.1  '/>	<g transform="translate(564.7,467.9)" stroke="none" fill="black" font-family="Arial" font-size="12.00"  text-anchor="middle">
		<text><tspan font-family="Arial" > 90</tspan></text>
	</g>
</g>
<g fill="none" color="black" stroke="currentColor" stroke-width="1.00" stroke-linecap="butt" stroke-linejoin="miter">
</g>
<g fill="none" color="black" stroke="currentColor" stroke-width="1.00" stroke-linecap="butt" stroke-linejoin="miter">
	<path stroke='black'  d='M62.2,18.1 L62.2,446.0 L615.0,446.0 L615.0,18.1 L62.2,18.1 Z  '/></g>
<g fill="none" color="black" stroke="currentColor" stroke-width="1.00" stroke-linecap="butt" stroke-linejoin="miter">
</g>
	<g id="gnuplot_plot_1" ><title>empty</title>
<g fill="none" color="black" stroke="currentColor" stroke-width="1.00" stroke-linecap="butt" stroke-linejoin="miter">
	<g transform="translate(279.8,485.9)" stroke="none" fill="black" font-family="Arial" font-size="12.00"  text-anchor="end">
		<text><tspan font-family="Arial" >empty</tspan></text>
	</g>
</g>
<g fill="none" color="black" stroke="currentColor" stroke-width="1.00" stroke-linecap="butt" stroke-linejoin="miter">
	<path stroke='rgb(148,   0, 211)'  d='M288.1,482.0 L330.3,482.0 M62.2,437.8 L67.8,437.8 L73.4,437.8 L79.0,437.8 L84.5,437.8 L90.1,437.8
		L95.7,437.8 L101.3,437.8 L106.9,437.8 L112.5,437.8 L118.0,437.8 L123.6,437.8 L129.2,437.8 L134.8,437.8
		L140.4,437.8 L146.0,437.8 L151.5,437.8 L157.1,437.8 L162.7,437.8 L168.3,437.8 L173.9,437.8 L179.5,437.8
		L185.0,437.8 L190.6,437.8 L196.2,437.8 L201.8,437.8 L207.4,437.8 L213.0,437.8 L218.5,437.8 L224.1,437.8
		L229.7,437.8 L235.3,437.8 L240.9,437.8 L246.5,437.8 L252.1,437.8 L257.6,437.8 L263.2,437.8 L268.8,437.8
		L274.4,437.8 L280.0,437.8 L285.6,437.8 L291.1,437.8 L296.7,437.8 L302.3,437.8 L307.9,437.8 L313.5,437.8
		L319.1,437.8 L324.6,437.8 L330.2,437.8 L335.8,437.8 L341.4,437.8 L347.0,437.8 L352.6,437.8 L358.1,437.8
		L363.7,437.8 L369.3,437.8 L374.9,437.8 L380.5,437.8 L386.1,437.8 L391.6,437.8 L397.2,437.8 L402.8,437.8
		L408.4,437.8 L414.0,437.8 L419.6,437.8 L425.1,437.8 L430.7,437.8 L436.3,437.8 L441.9,437.8 L447.5,437.8
		L453.1,437.8 L458.7,437.8 L464.2,437.8 L469.8,437.8 L475.4,437.8 L481.0,437.8 L486.6,437.8 L492.2,437.8
		L497.7,437.8 L503.3,437.8 L508.9,437.8 L514.5,437.8 L520.1,437.8 L525.7,437.8 L531.2,437.8 L536.8,437.8
		L542.4,437.8 L548.0,437.8 L553.6,437.8 L559.2,437.8 L564.7,437.8 L570.3,437.8 L575.9,437.8 L581.5,437.8
		L587.1,437.8 L592.7,437.8 L598.2,437.8 L603.8,437.8 L609.4,437.8 L615.0,437.8  '/></g>
	</g>
	<g id="gnuplot_plot_2" ><title>pages</title>
<g fill="none" color="black" stroke="currentColor" stroke-width="1.00" stroke-linecap="butt" stroke-linejoin="miter">
	<g transform="translate(380.1,485.9)" stroke="none" fill="black" font-family="Arial" font-size="12.00"  text-anchor="end">
		<text><tspan font-family="Arial" >pages</tspan></text>
	</g>
</g>
<g fill="none" color="black" stroke="currentColor" stroke-width="1.00" stroke-linecap="butt" stroke-linejoin="miter">
	<path stroke='rgb(  0, 158, 115)'  d='M388.4,482.0 L430.6,482.0 M62.2,222.8 L67.8,140.3 L73.4,59.1 L79.0,59.1 L84.5,48.8 L90.1,48.8
		L95.7,48.8 L101.3,48.8 L106.9,48.8 L112.5,48.8 L118.0,48.8 L123.6,48.8 L129.2,48.8 L134.8,48.8
		L140.4,48.8 L146.0,48.8 L151.5,48.8 L157.1,48.8 L162.7,48.8 L168.3,48.8 L173.9,48.8 L179.5,48.8
		L185.0,48.8 L190.6,48.8 L196.2,48.8 L201.8,48.8 L207.4,48.8 L213.0,48.8 L218.5,48.8 L224.1,48.8
		L229.7,48.8 L235.3,48.8 L240.9,48.8 L246.5,48.8 L252.1,48.8 L257.6,48.8 L263.2,48.8 L268.8,48.8
		L274.4,48.8 L280.0,48.8 L285.6,48.8 L291.1,48.8 L296.7,48.8 L302.3,48.8 L307.9,48.8 L313.5,48.8
		L319.1,48.8 L324.6,48.8 L330.2,43.4 L335.8,38.6 L341.4,38.6 L347.0,38.6 L352.6,38.6 L358.1,38.6
		L363.7,38.6 L369.3,38.6 L374.9,38.6 L380.5,38.6 L386.1,38.6 L391.6,38.6 L397.2,38.6 L402.8,38.6
		L408.4,38.6 L414.0,38.6 L419.6,38.6 L425.1,38.6 L430.7,38.6 L436.3,38.6 L441.9,38.6 L447.5,38.6
		L453.1,38.6 L458.7,38.6 L464.2,38.6 L469.8,38.6 L475.4,38.6 L481.0,38.6 L486.6,38.6 L492.2,38.6
		L497.7,38.6 L503.3,38.6 L508.9,38.6 L514.5,38.6 L520.1,38.6 L525.7,38.6 L531.2,38.6 L536.8,38.6
		L542.4,38.6 L548.0,38.6 L553.6,38.6 L559.2,38.6 L564.7,38.6 L570.3,38.6 L575.9,38.6 L581.5,37.2
		L587.1,32.5 L592.7,31.8 L598.2,29.7 L603.8,28.4 L609.4,28.4 L615.0,26.3  '/></g>
	</g>
<g fill="none" color="#FFFFFF" stroke="rgb(  0, 158, 115)" stroke-width="2.00" stroke-linecap="butt" stroke-linejoin="miter">
</g>
<g fill="none" color="black" stroke="currentColor" stroke-width="2.00" stroke-linecap="butt" stroke-linejoin="miter">
</g>
<g fill="none" color="black" stroke="black" stroke-width="1.00" stroke-linecap="butt" stroke-linejoin="miter">
</g>
<g fill="none" color="black" stroke="currentColor" stroke-width="1.00" stroke-linecap="butt" stroke-linejoin="miter">
	<path stroke='black'  d='M62.2,18.1 L62.2,446.0 L615.0,446.0 L615.0,18.1 L62.2,18.1 Z  '/></g>
<g fill="none" color="black" stroke="currentColor" stroke-width="1.00" stroke-linecap="butt" stroke-linejoin="miter">
</g>
</g>
</svg>
